X:1
T:Title
%%score { 1 | 2 }
L:1/8
Q:1/4=100
M:4/4
K:F
V:1 treble nm="Grand Piano"
V:2 bass 
V:1
 A>B A>G F2 A2 | [DG]>[DF] D>F C4 | F>F F>G A2 F2 | [EG]4 [Ec]4 | A>B A>G F2 A2 | %5
w: John~R.~Sweney * * * * *|||||
 [DG]>[DF] D>F C4 | F>G A>d c2 A2 | [EG]4 F2 z2 | [DF]>[DF] [DF]>[DB] [Fd]3 [Fd] | c2 A>B c4 | %10
w: |||||
 B>B [EG]>[EG] A>A F>F | [EG]4 [Ec]4 | A>B A>G F2 A2 | [DG]>[DF] D>F C4 | F>G A>d c2 A2 | %15
w: |||||
[M:8/4] [EG]4 .F4 z8 |] %16
w: |
V:2
 [F,C]>[F,D] [F,C]>[F,B,] [F,A,]2 [F,C]2 | [B,,F,]>[B,,F,] [B,,F,B,]>[D,F,B,] [F,A,]4 | %2
 [F,A,C]>[F,A,C] [F,A,C]>[F,B,C] [F,CF]2 [F,A,]2 | [C,C]4 [C,G,]4 | %4
 [F,C]>[F,D] [F,C]>[F,B,] [F,A,]2 [F,C]2 | [B,,F,]>[B,,F,] [B,,F,B,]>[D,F,B,] [F,A,]4 | %6
 [F,A,C]>[F,B,C] [F,CF]>[F,B,F] [F,A,F]2 [F,CF]2 | [C,B,]4 [F,A,]2 z2 | %8
 [B,,B,]>[B,,B,] [B,,B,]>[B,,F,] [B,,B,]3 [B,,B,] | [F,A,C]2 [F,C]>[F,G,C] [F,A,C]4 | %10
 [E,G,C]>[E,G,C] [C,C]>[C,C] [F,CF]>[F,CF] [G,=B,D]>[G,B,D] | [C,C]4 [C,G,]4 | %12
 [F,C]>[F,D] [F,C]>[F,B,] [F,A,]2 [F,C]2 | [B,,F,]>[B,,F,] [B,,F,B,]>[D,F,B,] [F,A,]4 | %14
 [F,A,C]>[F,B,C] [F,CF]>[F,B,F] [F,A,F]2 [F,CF]2 |[M:8/4] [C,B,]4 .[F,A,]4 z8 |] %16

